dist/img/check.svg

<svg width="21" height="19" viewBox="0 0 21 19" fill="none" xmlns="http://www.w3.org/2000/svg">
<path d="M20.083 0.367141C19.1354 -0.143119 18.0784 0.840954 17.4588 1.42411C16.0374 2.8091 14.8347 4.41278 13.4861 5.87066C11.9917 7.47434 10.6068 9.07801 9.07597 10.6453C8.20124 11.52 7.25361 12.4677 6.67046 13.5611C5.35836 12.2854 4.2285 10.9004 2.77061 9.77057C1.71364 8.96873 -0.0358256 8.38558 0.000621562 10.3173C0.0735159 12.8322 2.29679 15.5293 3.93692 17.2422C4.62941 17.9712 5.54059 18.7366 6.59756 18.773C7.87321 18.8459 9.18531 17.3151 9.9507 16.4768C11.2993 15.019 12.3927 13.3788 13.6319 11.8845C15.2355 9.91636 16.8757 7.9846 18.4429 5.98C19.427 4.7408 22.525 1.67918 20.083 0.367141ZM1.60424 10.1715C1.56779 10.1715 1.53134 10.1715 1.45845 10.2079C1.31266 10.1715 1.20332 10.135 1.05753 10.0621C1.16687 9.98919 1.34911 10.0256 1.60424 10.1715Z" fill="#FF5C00"/>
</svg>

<svg xmlns="http://www.w3.org/2000/svg" fill="none" viewBox="0 0 21 19"><path fill="#FF5C00" d="M20.083.367c-.948-.51-2.005.474-2.624 1.057-1.422 1.385-2.624 2.989-3.973 4.447-1.494 1.603-2.88 3.207-4.41 4.774-.875.875-1.822 1.823-2.406 2.916-1.312-1.276-2.441-2.66-3.9-3.79-1.056-.802-2.806-1.385-2.77.546.074 2.515 2.297 5.212 3.937 6.925.692.73 1.604 1.495 2.66 1.531 1.276.073 2.588-1.458 3.354-2.296 1.348-1.458 2.442-3.098 3.68-4.593 1.604-1.968 3.245-3.9 4.812-5.904.984-1.24 4.082-4.3 1.64-5.613zM1.604 10.171c-.036 0-.073 0-.146.037a1.774 1.774 0 0 1-.4-.146c.109-.073.291-.036.546.11z"/></svg>
